src/food-drink/drink/1F377.svg

<?xml version="1.0" encoding="UTF-8"?>
<svg id="emoji" xmlns="http://www.w3.org/2000/svg" viewBox="0 0 72 72">
  <g id="grid">
    <path d="m68,4v64H4V4h64M72,0H0v72h72V0Z" fill="#b3b3b3"/>
    <path d="m12.923,10.9583h46.1539c1.0621,0,1.9231.861,1.9231,1.9231h0v46.1538c0,1.0621-.861,1.9231-1.9231,1.9231H12.9231c-1.0621,0-1.9231-.861-1.9231-1.9231h0V12.8813c0-1.062.861-1.923,1.923-1.923h0Z" fill="none" stroke="#00a5ff" stroke-miterlimit="10" stroke-width=".1"/>
    <rect x="16" y="4" width="40" height="64" rx="2.2537" ry="2.2537" fill="none" stroke="#00a5ff" stroke-miterlimit="10" stroke-width=".1"/>
    <rect x="4" y="16" width="64" height="40" rx="2.2537" ry="2.2537" fill="none" stroke="#00a5ff" stroke-miterlimit="10" stroke-width=".1"/>
    <circle cx="36" cy="36" r="29" fill="none" stroke="#00a5ff" stroke-miterlimit="10" stroke-width=".1"/>
  </g>
  <g id="color">
    <polygon points="55 26 17 26 17 14 43.0198 14 55 14 55 26" fill="#ea5a47"/>
    <path d="m56,24c0,11.0457-8.9543,20-20,20s-20-8.9543-20-20" fill="#ea5a47"/>
    <path d="m55,24v-10h-7.5698c.5966,6.3347.293,21.2038-13.788,29.849.7747.0911,1.5587.151,2.3578.151,11.0457,0,20-8.9543,20-20h-1Z" fill="#d22f27"/>
  </g>
  <g id="line">
    <line x1="20" y1="67" x2="52" y2="67" fill="none" stroke="#000" stroke-linecap="round" stroke-linejoin="round" stroke-width="2"/>
    <line x1="36" y1="44" x2="36" y2="67" fill="none" stroke="#000" stroke-linecap="round" stroke-linejoin="round" stroke-width="2"/>
    <path d="m56,24c0,3.265-.7824,6.3473-2.1699,9.0696-3.3065,6.4874-10.0494,10.9304-17.8301,10.9304-11.0457,0-20-8.9543-20-20" fill="none" stroke="#000" stroke-linecap="round" stroke-linejoin="round" stroke-width="2"/>
    <line x1="16" y1="5" x2="16" y2="24" fill="none" stroke="#000" stroke-linecap="round" stroke-linejoin="round" stroke-width="2"/>
    <line x1="56" y1="5" x2="56" y2="24" fill="none" stroke="#000" stroke-linecap="round" stroke-linejoin="round" stroke-width="2"/>
    <line x1="16.5387" y1="14.5" x2="55.5" y2="14.5" fill="none" stroke="#000" stroke-miterlimit="10" stroke-width="1.9739"/>
  </g>
</svg>

<svg id="emoji" viewBox="0 0 72 72" xmlns="http://www.w3.org/2000/svg">
  <g id="grid">
    <path fill="#b3b3b3" d="M68,4V68H4V4H68m4-4H0V72H72V0Z"/>
    <path fill="none" stroke="#00a5ff" stroke-miterlimit="10" stroke-width="0.1" d="M12.923,10.9583H59.0769A1.9231,1.9231,0,0,1,61,12.8814V59.0352a1.9231,1.9231,0,0,1-1.9231,1.9231H12.9231A1.9231,1.9231,0,0,1,11,59.0352V12.8813A1.923,1.923,0,0,1,12.923,10.9583Z"/>
    <rect x="16" y="4" rx="2.2537" width="40" height="64" fill="none" stroke="#00a5ff" stroke-miterlimit="10" stroke-width="0.1"/>
    <rect x="16" y="4" rx="2.2537" width="40" height="64" transform="translate(72) rotate(90)" fill="none" stroke="#00a5ff" stroke-miterlimit="10" stroke-width="0.1"/>
    <circle cx="36" cy="36" r="29" fill="none" stroke="#00a5ff" stroke-miterlimit="10" stroke-width="0.1"/>
  </g>
  <g id="color">
    <polygon fill="#EA5A47" stroke="none" points="55,26 17,26 17,14 43.0198,14 55,14"/>
    <path fill="#EA5A47" stroke="none" d="M56,24c0,11.0457-8.9543,20-20,20s-20-8.9543-20-20"/>
    <path fill="#d22f27" stroke="none" d="M55,24V14h-7.5698c0.5966,6.3347,0.293,21.2038-13.788,29.849C34.4169,43.9401,35.2009,44,36,44 c11.0457,0,20-8.9543,20-20H55z"/>
  </g>
  <g id="hair"/>
  <g id="skin"/>
  <g id="skin-shadow"/>
  <g id="line">
    <line x1="20" x2="52" y1="67" y2="67" fill="none" stroke="#000000" stroke-linecap="round" stroke-linejoin="round" stroke-miterlimit="10" stroke-width="2"/>
    <line x1="36" x2="36" y1="44" y2="67" fill="none" stroke="#000000" stroke-linecap="round" stroke-linejoin="round" stroke-miterlimit="10" stroke-width="2"/>
    <path fill="none" stroke="#000000" stroke-linecap="round" stroke-linejoin="round" stroke-miterlimit="10" stroke-width="2" d="M56,24c0,3.265-0.7824,6.3473-2.1699,9.0696C50.5236,39.557,43.7807,44,36,44c-11.0457,0-20-8.9543-20-20"/>
    <line x1="16" x2="16" y1="5" y2="24" fill="none" stroke="#000000" stroke-linecap="round" stroke-linejoin="round" stroke-miterlimit="10" stroke-width="2"/>
    <line x1="56" x2="56" y1="5" y2="24" fill="none" stroke="#000000" stroke-linecap="round" stroke-linejoin="round" stroke-miterlimit="10" stroke-width="2"/>
    <line x1="15.5" x2="55.5" y1="14.5" y2="14.5" fill="none" stroke="#000000" stroke-miterlimit="10" stroke-width="2"/>
  </g>
</svg>
